X:1
T:Title
%%score 1 { 2 | 3 }
L:1/8
Q:1/4=116
M:4/4
K:Eb
V:1 treble nm="Church Organ, Staff 1"
V:2 bass nm="Church Organ, Aurelia"
V:3 bass 
V:1
 [EG]2 [EG]2 [EG]2 [EA]2 | [EG]2 [EG]4 [DF]2 | E2 [CE]2 [Ec]2 [EB]2 | [DA]2 [EG]6 | %4
w: By~Samuel~Sebastian~Wesley,~1864 * * *||||
 [DA]2 [EB]2 [Ee]2 [Ee]2 | [Fd]2 [Fd]4 [Ec]2 | [GB]2 [FA]2 [FB]2 [EG]2 | E2 [DF]6 | %8
w: ||||
 [DF]2 [EG]2 [DA]2 [EB]2 | [Ec]2 [Ec]4 [EB]2 | [Ge]2 [Ge]2- [Ge][Gd] [Gc]2 | G2 [FA]6 | %12
w: ||||
 F2 [EG]2 [EG]2 [EA]2 | [EG]2 [CG]4 [CF]2 | [CE]2 [CE]2 [CF]2 [B,E]2 | [B,D]2 [B,E]6- | %16
w: ||||
 [B,E]2 z2 z4 |] %17
w: |
V:2
 B,2 B,2 B,2 C2 | B,2 B,4 B,2 | B,2 F,2 F,2 G,2 | B,2 B,6 | B,2 B,2 B,2 =B,2 | %5
 =B,2 B,4[K:treble] C2 | D2 E2 F2 B,2 | =A,2 B,6 | B,2 B,2 B,2 B,2 | A,2 A,4 B,2 | C2 C2- C=B, C2 | %11
 C2 C6 | B,2 B,2 B,2 C2 | B,2 B,4 A,2 | A,2 A,2 A,2 F,2 | A,2 G,6- | G,2 z2 z4 |] %17
V:3
 E,2 E,2 E,2 E,2 | E,2 B,,4 A,,2 | G,,2 A,,2 A,,2 B,,2 | B,,2 E,6 | F,2 G,2 G,2 G,2 | %5
 G,,2 A,,4 A,,2 | B,,2 C,2 D,2 E,2 | C,2 B,,6 | B,,2 E,2 F,2 G,2 | z4 z2 G,2 | C,2 G,2- G,F, E,2 | %11
 =E,2 F,6 | D,2 E,2 E,2 E,2 | E,2 A,,4 A,,2 | A,,2 F,,2 F,,2 B,,2 | B,,2 E,6- | E,2 z2 z4 |] %17

